client/resources/iconsets/breeze/src/svg/16x16/icon_contact_equipment.svg

<svg xmlns="http://www.w3.org/2000/svg" width="16" height="16" viewBox="0 0 16 16">
 <path style="fill:#6d6d70"
       d="M 1 5 C 0.44600798 5 0 5.5231 0 6.15625 L 0 10.71875 C 0 11.35189 0.41671111 12 0.97070312 12 L 1.9726562 12 C 1.9726562 12.63315 2.4479611 13 3.0019531 13 L 4 13 C 4.553992 13 4.9785156 12.63315 4.9785156 12 L 10.978516 12 C 10.978516 12.63315 11.446007 13 12 13 L 12.996094 13 C 13.550086 13 13.996094 12.63315 13.996094 12 L 15 12 C 15.554002 12 16 11.35189 16 10.71875 L 16 6.15625 C 16 5.5231 15.554002 5 15 5 L 1 5 z M 1 6 L 2 6 L 2 8.5 L 2 11 L 1 11 L 1 8.5 L 1 6 z M 3 6 L 4 6 L 4 8.6914062 L 4 11 L 3 11 L 3 8.5 L 3 6 z M 5 6 L 6 6 L 6 8.5 L 6 11 L 5 11 L 5 8.5 L 5 6 z M 12.498047 6 C 13.878744 6 15 7.11929 15 8.5 C 15 9.88071 13.878744 11 12.498047 11 C 11.11735 11 10 9.88071 10 8.5 C 10 7.11929 11.11735 6 12.498047 6 z M 12.492188 7 A 1.5029354 1.5 0 0 0 10.990234 8.5 A 1.5029354 1.5 0 0 0 12.492188 10 A 1.5029354 1.5 0 0 0 13.996094 8.5 A 1.5029354 1.5 0 0 0 12.492188 7 z "
       />
</svg>

<svg xmlns="http://www.w3.org/2000/svg" width="16" height="16"><path d="M1 5c-.554 0-1 .523-1 1.156v4.563C0 11.352.417 12 .971 12h1.002c0 .633.475 1 1.029 1H4a.93.93 0 0 0 .979-1h6c0 .633.467 1 1.021 1h.996c.554 0 1-.367 1-1H15c.554 0 1-.648 1-1.281V6.156C16 5.523 15.554 5 15 5H1zm0 1h1v2.5V11H1V8.5 6zm2 0h1v2.691V11H3V8.5 6zm2 0h1v2.5V11H5V8.5 6zm7.498 0C13.879 6 15 7.119 15 8.5S13.879 11 12.498 11a2.5 2.5 0 1 1 0-5zm-.006 1a1.503 1.5 0 0 0-1.502 1.5 1.503 1.5 0 0 0 1.502 1.5 1.503 1.5 0 0 0 1.504-1.5A1.503 1.5 0 0 0 12.492 7z" fill="#6d6d70"/></svg>
